images/icons/discord.svg

<svg fill="none" height="24" viewBox="0 0 24 24" width="24" xmlns="http://www.w3.org/2000/svg"><path d="m20.317 4.36639c-1.5297-.70188-3.17-1.219-4.8851-1.51517-.0312-.00572-.0624.00857-.0785.03714-.211.37521-.4447.86471-.6083 1.24945-1.8447-.27616-3.6799-.27616-5.48678 0-.16367-.39329-.40584-.87424-.61775-1.24945-.01609-.02762-.04729-.0419-.07852-.03714-1.71414.29523-3.35449.81234-4.88511 1.51517-.01326.00571-.02461.01524-.03215.02762-3.111398 4.64836-3.96374 9.18249-3.5456099 13.66039.0018919.0219.0141899.0428.0312179.0561 2.052812 1.5076 4.041312 2.4228 5.992882 3.0294.03123.0096.06433-.0019.0842-.0276.46165-.6304.87316-1.2951 1.226-1.9942.02082-.0409.00094-.0895-.04162-.1057-.65273-.2476-1.27426-.5495-1.87213-.8923-.04729-.0276-.05108-.0953-.00757-.1277.12581-.0942.25166-.1923.37179-.2914.02174-.0181.05203-.0219.07758-.0105 3.92775 1.7933 8.17997 1.7933 12.06147 0 .0255-.0123.0558-.0085.0785.0096.1201.099.246.1981.3727.2923.0435.0324.0407.1001-.0066.1277-.5979.3495-1.2194.6447-1.8731.8914-.0425.0162-.0615.0657-.0407.1066.3605.6981.772 1.3628 1.2251 1.9933.0189.0266.053.0381.0842.0285 1.961-.6066 3.9495-1.5218 6.0023-3.0294.018-.0133.0294-.0333.0313-.0552.5004-5.1769-.8382-9.67385-3.5485-13.66035-.0066-.01332-.0179-.02285-.0312-.02856zm-12.29698 10.96141c-1.18252 0-2.15689-1.0856-2.15689-2.4189s.95547-2.419 2.15689-2.419c1.21085 0 2.17578 1.0952 2.15688 2.419 0 1.3333-.95549 2.4189-2.15688 2.4189zm7.97468 0c-1.1824 0-2.1568-1.0856-2.1568-2.4189s.9554-2.419 2.1568-2.419c1.2109 0 2.1758 1.0952 2.1569 2.419 0 1.3333-.946 2.4189-2.1569 2.4189z" fill="#fff"/></svg>

<svg width="24" height="24" viewBox="0 0 24 24" fill="none" xmlns="http://www.w3.org/2000/svg">
<path d="M20.317 4.36639C18.7873 3.66451 17.147 3.14739 15.4319 2.85122C15.4007 2.8455 15.3695 2.85979 15.3534 2.88836C15.1424 3.26357 14.9087 3.75307 14.7451 4.13781C12.9004 3.86165 11.0652 3.86165 9.25832 4.13781C9.09465 3.74452 8.85248 3.26357 8.64057 2.88836C8.62448 2.86074 8.59328 2.84646 8.56205 2.85122C6.84791 3.14645 5.20756 3.66356 3.67694 4.36639C3.66368 4.3721 3.65233 4.38163 3.64479 4.39401C0.533392 9.04237 -0.31895 13.5765 0.0991801 18.0544C0.101072 18.0763 0.11337 18.0972 0.130398 18.1105C2.18321 19.6181 4.17171 20.5333 6.12328 21.1399C6.15451 21.1495 6.18761 21.138 6.20748 21.1123C6.66913 20.4819 7.08064 19.8172 7.43348 19.1181C7.4543 19.0772 7.43442 19.0286 7.39186 19.0124C6.73913 18.7648 6.1176 18.4629 5.51973 18.1201C5.47244 18.0925 5.46865 18.0248 5.51216 17.9924C5.63797 17.8982 5.76382 17.8001 5.88395 17.701C5.90569 17.6829 5.93598 17.6791 5.96153 17.6905C9.88928 19.4838 14.1415 19.4838 18.023 17.6905C18.0485 17.6782 18.0788 17.682 18.1015 17.7001C18.2216 17.7991 18.3475 17.8982 18.4742 17.9924C18.5177 18.0248 18.5149 18.0925 18.4676 18.1201C17.8697 18.4696 17.2482 18.7648 16.5945 19.0115C16.552 19.0277 16.533 19.0772 16.5538 19.1181C16.9143 19.8162 17.3258 20.4809 17.7789 21.1114C17.7978 21.138 17.8319 21.1495 17.8631 21.1399C19.8241 20.5333 21.8126 19.6181 23.8654 18.1105C23.8834 18.0972 23.8948 18.0772 23.8967 18.0553C24.3971 12.8784 23.0585 8.38145 20.3482 4.39495C20.3416 4.38163 20.3303 4.3721 20.317 4.36639ZM8.02002 15.3278C6.8375 15.3278 5.86313 14.2422 5.86313 12.9089C5.86313 11.5756 6.8186 10.4899 8.02002 10.4899C9.23087 10.4899 10.1958 11.5851 10.1769 12.9089C10.1769 14.2422 9.22141 15.3278 8.02002 15.3278ZM15.9947 15.3278C14.8123 15.3278 13.8379 14.2422 13.8379 12.9089C13.8379 11.5756 14.7933 10.4899 15.9947 10.4899C17.2056 10.4899 18.1705 11.5851 18.1516 12.9089C18.1516 14.2422 17.2056 15.3278 15.9947 15.3278Z" fill="white"/>
</svg>
